src/main/resources/cards/fronts/diamonds_9.svg

<?xml version="1.0" encoding="UTF-8" standalone="no"?>
<!-- Created with Inkscape (http://www.inkscape.org/) -->

<svg
   xmlns:dc="http://purl.org/dc/elements/1.1/"
   xmlns:cc="http://creativecommons.org/ns#"
   xmlns:rdf="http://www.w3.org/1999/02/22-rdf-syntax-ns#"
   xmlns:svg="http://www.w3.org/2000/svg"
   xmlns="http://www.w3.org/2000/svg"
   xmlns:sodipodi="http://sodipodi.sourceforge.net/DTD/sodipodi-0.dtd"
   xmlns:inkscape="http://www.inkscape.org/namespaces/inkscape"
   width="234"
   height="333.00003"
   id="svg2"
   version="1.1"
   inkscape:version="0.92.4 (5da689c313, 2019-01-14)"
   sodipodi:docname="diamonds_9.svg"
   inkscape:export-filename="C:\Users\fowle\OneDrive\Projects\Playing-Cards\fronts\png-096-dpi\diamonds_9.png"
   inkscape:export-xdpi="95.969437"
   inkscape:export-ydpi="95.969437">
  <title
     id="title889">Nine of Diamonds Playing Card</title>
  <defs
     id="defs4" />
  <sodipodi:namedview
     id="base"
     pagecolor="#ffffff"
     bordercolor="#666666"
     borderopacity="1.0"
     inkscape:pageopacity="0.0"
     inkscape:pageshadow="2"
     inkscape:zoom="2.1916676"
     inkscape:cx="54.396724"
     inkscape:cy="163.89266"
     inkscape:document-units="px"
     inkscape:current-layer="layer1"
     showgrid="false"
     inkscape:showpageshadow="false"
     showguides="true"
     inkscape:guide-bbox="true"
     inkscape:snap-global="true"
     inkscape:window-width="1456"
     inkscape:window-height="976"
     inkscape:window-x="589"
     inkscape:window-y="30"
     inkscape:window-maximized="0"
     showborder="false"
     fit-margin-top="0"
     fit-margin-left="0"
     fit-margin-right="0"
     fit-margin-bottom="0">
    <inkscape:grid
       type="xygrid"
       id="grid3767"
       empspacing="5"
       visible="true"
       enabled="true"
       snapvisiblegridlinesonly="true"
       originx="0"
       originy="5.1666068e-06" />
  </sodipodi:namedview>
  <metadata
     id="metadata7">
    <rdf:RDF>
      <cc:Work
         rdf:about="">
        <dc:format>image/svg+xml</dc:format>
        <dc:type
           rdf:resource="http://purl.org/dc/dcmitype/StillImage" />
        <dc:title>Nine of Diamonds Playing Card</dc:title>
        <cc:license
           rdf:resource="http://creativecommons.org/publicdomain/zero/1.0/" />
        <dc:date>2020-05-05</dc:date>
        <dc:creator>
          <cc:Agent>
            <dc:title>Daniel S. Fowler</dc:title>
          </cc:Agent>
        </dc:creator>
        <dc:rights>
          <cc:Agent>
            <dc:title>Public Domain</dc:title>
          </cc:Agent>
        </dc:rights>
        <dc:publisher>
          <cc:Agent>
            <dc:title>https://tekeye.uk</dc:title>
          </cc:Agent>
        </dc:publisher>
        <dc:language>en-GB</dc:language>
        <dc:subject>
          <rdf:Bag>
            <rdf:li>nine; diamonds; playing; card; white; red;</rdf:li>
          </rdf:Bag>
        </dc:subject>
        <dc:description>A nine of diamonds playing card.</dc:description>
      </cc:Work>
      <cc:License
         rdf:about="http://creativecommons.org/publicdomain/zero/1.0/">
        <cc:permits
           rdf:resource="http://creativecommons.org/ns#Reproduction" />
        <cc:permits
           rdf:resource="http://creativecommons.org/ns#Distribution" />
        <cc:permits
           rdf:resource="http://creativecommons.org/ns#DerivativeWorks" />
      </cc:License>
    </rdf:RDF>
  </metadata>
  <g
     inkscape:label="Layer 1"
     inkscape:groupmode="layer"
     id="layer1"
     style="fill:#F00"
     transform="translate(0,-719.36216)">
    <g
       id="g922">
      <rect
         rx="8.9191856"
         ry="8.9457436"
         y="719.74011"
         x="0.37795275"
         height="332.24411"
         width="233.24409"
         id="rect4266"
         style="fill:#ffffff;fill-opacity:1;stroke:#808080;stroke-width:0.75590551;stroke-linecap:butt;stroke-linejoin:miter;stroke-miterlimit:4;stroke-dasharray:none;stroke-opacity:1" />
      <g
         transform="matrix(0.07348588,0,0,0.07370838,-248.01731,933.60062)"
         id="g4233"
         style="fill:none;stroke:#000000;stroke-width:3.18132639;stroke-opacity:1" />
      <g
         clip-path="none"
         style="fill:none;stroke:#000000;stroke-width:3.18132639;stroke-opacity:1"
         id="g4211"
         transform="matrix(0.07348588,0,0,0.07370838,-248.01728,933.60062)" />
      <g
         transform="matrix(0.07348588,0,0,0.07370838,-248.01731,933.60062)"
         id="g4227"
         style="fill:none;stroke:#000000;stroke-width:3.18132639;stroke-opacity:1" />
      <path
         inkscape:export-ydpi="95.969437"
         inkscape:export-xdpi="95.969437"
         inkscape:export-filename="D:\DAN\Documents\Projects\Playing Cards\test.png"
         inkscape:connector-curvature="0"
         id="path4884-1"
         d="M 58.629672,814.07624 86.87338,785.73971 58.629672,757.40317 30.385965,785.73971 Z"
         style="fill:#ff0000;fill-opacity:1;stroke:none;stroke-width:1" />
      <path
         inkscape:export-ydpi="95.969437"
         inkscape:export-xdpi="95.969437"
         inkscape:export-filename="D:\DAN\Documents\Projects\Playing Cards\test.png"
         inkscape:connector-curvature="0"
         id="path4884-1-4"
         d="M 58.629676,1014.3212 86.87338,985.98462 58.629676,957.64809 30.385965,985.98462 Z"
         style="fill:#ff0000;fill-opacity:1;stroke:none;stroke-width:1" />
      <path
         inkscape:export-ydpi="95.969437"
         inkscape:export-xdpi="95.969437"
         inkscape:export-filename="D:\DAN\Documents\Projects\Playing Cards\test.png"
         inkscape:connector-curvature="0"
         id="path4884-1-4-1"
         d="M 58.629676,947.57285 86.87338,919.23632 58.629676,890.89979 30.385965,919.23632 Z"
         style="fill:#ff0000;fill-opacity:1;stroke:none;stroke-width:1" />
      <path
         inkscape:export-ydpi="95.969437"
         inkscape:export-xdpi="95.969437"
         inkscape:export-filename="D:\DAN\Documents\Projects\Playing Cards\test.png"
         inkscape:connector-curvature="0"
         id="path4884-1-7"
         d="M 58.629672,880.82455 86.87338,852.48801 58.629672,824.15148 30.385965,852.48801 Z"
         style="fill:#ff0000;fill-opacity:1;stroke:none;stroke-width:1" />
      <path
         inkscape:export-ydpi="95.969437"
         inkscape:export-xdpi="95.969437"
         inkscape:export-filename="D:\DAN\Documents\Projects\Playing Cards\test.png"
         inkscape:connector-curvature="0"
         id="path4884-1-40"
         d="M 175.37033,814.07623 203.61404,785.7397 175.37033,757.40316 147.12662,785.7397 Z"
         style="fill:#ff0000;fill-opacity:1;stroke:none;stroke-width:1" />
      <path
         inkscape:export-ydpi="95.969437"
         inkscape:export-xdpi="95.969437"
         inkscape:export-filename="D:\DAN\Documents\Projects\Playing Cards\test.png"
         inkscape:connector-curvature="0"
         id="path4884-1-4-9"
         d="m 175.37033,1014.3212 28.24371,-28.33659 -28.24371,-28.33654 -28.24371,28.33654 z"
         style="fill:#ff0000;fill-opacity:1;stroke:none;stroke-width:1" />
      <path
         inkscape:export-ydpi="95.969437"
         inkscape:export-xdpi="95.969437"
         inkscape:export-filename="D:\DAN\Documents\Projects\Playing Cards\test.png"
         inkscape:connector-curvature="0"
         id="path4884-1-4-1-4"
         d="M 175.37033,947.57284 203.61404,919.2363 175.37033,890.89978 147.12662,919.2363 Z"
         style="fill:#ff0000;fill-opacity:1;stroke:none;stroke-width:1" />
      <path
         inkscape:export-ydpi="95.969437"
         inkscape:export-xdpi="95.969437"
         inkscape:export-filename="D:\DAN\Documents\Projects\Playing Cards\test.png"
         inkscape:connector-curvature="0"
         id="path4884-1-7-8"
         d="M 175.37033,880.82454 203.61404,852.488 175.37033,824.15146 147.12662,852.488 Z"
         style="fill:#ff0000;fill-opacity:1;stroke:none;stroke-width:1" />
      <path
         inkscape:export-ydpi="95.969437"
         inkscape:export-xdpi="95.969437"
         inkscape:export-filename="D:\DAN\Documents\Projects\Playing Cards\test.png"
         inkscape:connector-curvature="0"
         id="path4884-1-40-8-2"
         d="M 117,914.1987 145.24371,885.86217 117,857.52563 88.756294,885.86217 Z"
         style="fill:#ff0000;fill-opacity:1;stroke:none;stroke-width:1" />
      <path
         inkscape:connector-curvature="0"
         id="path4884-1-4-5-3"
         d="m 17.205569,780.7021 9.414569,-9.44551 -9.414569,-9.44552 -9.4145688,9.44552 z"
         style="fill:#ff0000;fill-opacity:1;stroke:none;stroke-width:1" />
      <path
         inkscape:connector-curvature="0"
         id="path4884-1-4-5-3-5"
         d="m 216.79443,991.02224 9.41457,9.44556 -9.41457,9.4455 -9.41457,-9.4455 z"
         style="fill:#ff0000;fill-opacity:1;stroke:none;stroke-width:1" />
      <g
         id="text3755"
         style="font-style:normal;font-variant:normal;font-weight:bold;font-stretch:normal;font-size:3.77201176px;line-height:0%;font-family:'Levenim MT';-inkscape-font-specification:'Sans Bold';letter-spacing:0px;word-spacing:0px;fill:#ff0000;fill-opacity:1;stroke:none;stroke-width:1"
         transform="scale(0.99079139,1.0092942)"
         aria-label="9">
        <path
           id="path897"
           style="font-size:39.19484329px;line-height:1.25;stroke-width:1"
           d="m 26.867551,734.10756 q 0,5.99023 -2.12433,9.7413 -2.660197,4.70797 -8.19111,4.70797 -3.23434,0 -5.339532,-1.28225 -2.5453681,-1.56932 -2.5453681,-4.63142 0,-0.66983 0.9377672,-0.66983 h 2.8324399 q 0.555005,0 0.937767,0.63155 0.574143,0.93777 0.880353,1.2057 0.784663,0.63156 2.296573,0.63156 2.545368,0 3.961588,-2.37312 1.11001,-1.91381 1.243977,-4.70798 -2.239158,1.77985 -5.35867,1.77985 -3.961588,0 -6.315575,-2.79417 -2.2200206,-2.62192 -2.2200206,-6.66006 0,-4.24866 2.4305396,-6.71747 2.43054,-2.48796 6.660061,-2.48796 9.91354,0 9.91354,13.62633 z m -5.224704,-4.30607 q 0,-2.08605 -1.129148,-3.54055 -1.243977,-1.6076 -3.253478,-1.6076 -2.066916,0 -3.291754,1.56932 -1.110011,1.43536 -1.110011,3.57883 0,2.18174 1.090872,3.59796 1.186563,1.55019 3.310893,1.55019 2.105192,0 3.291754,-1.56932 1.090872,-1.41622 1.090872,-3.57883 z"
           inkscape:connector-curvature="0" />
      </g>
      <g
         id="text3755-2"
         style="font-style:normal;font-variant:normal;font-weight:bold;font-stretch:normal;font-size:3.77201176px;line-height:0%;font-family:'Levenim MT';-inkscape-font-specification:'Sans Bold';letter-spacing:0px;word-spacing:0px;fill:#ff0000;fill-opacity:1;stroke:none;stroke-width:1"
         transform="scale(-0.99079139,-1.0092942)"
         aria-label="9">
        <path
           id="path900"
           style="font-size:39.19484329px;line-height:1.25;stroke-width:1"
           d="m -209.3073,-1021.3016 q 0,5.9902 -2.12433,9.7413 -2.66019,4.708 -8.19111,4.708 -3.23434,0 -5.33953,-1.2823 -2.54537,-1.5693 -2.54537,-4.6314 0,-0.6699 0.93777,-0.6699 h 2.83244 q 0.555,0 0.93777,0.6316 0.57414,0.9378 0.88035,1.2057 0.78466,0.6316 2.29657,0.6316 2.54537,0 3.96159,-2.3732 1.11001,-1.9138 1.24398,-4.7079 -2.23916,1.7798 -5.35867,1.7798 -3.96159,0 -6.31558,-2.7942 -2.22002,-2.6219 -2.22002,-6.66 0,-4.2487 2.43054,-6.7175 2.43054,-2.4879 6.66006,-2.4879 9.91354,0 9.91354,13.6263 z m -5.2247,-4.3061 q 0,-2.086 -1.12915,-3.5405 -1.24398,-1.6076 -3.25348,-1.6076 -2.06691,0 -3.29175,1.5693 -1.11001,1.4353 -1.11001,3.5788 0,2.1818 1.09087,3.598 1.18656,1.5502 3.31089,1.5502 2.10519,0 3.29176,-1.5694 1.09087,-1.4162 1.09087,-3.5788 z"
           inkscape:connector-curvature="0" />
      </g>
    </g>
  </g>
</svg>

<svg width="234" height="333.00003" xmlns="http://www.w3.org/2000/svg">
    <g id="layer1" transform="matrix(1 0 0 1 0 -719.3622)">
        <g id="g922">
            <path id="rect4266" fill="#ffffff" stroke="#808080" stroke-width="0.7559055" d="M 9.297138 719.7401 L 224.70288 719.7401 C 229.6288 719.7401 233.62206 723.74524 233.62206 728.68585 L 233.62206 1043.0385 C 233.62207 1045.411 232.68237 1047.6864 231.0097 1049.3641 C 229.33702 1051.0417 227.06839 1051.9843 224.70288 1051.9843 L 9.297138 1051.9843 C 6.9316134 1051.9843 4.662975 1051.0417 2.9903018 1049.3641 C 1.3176281 1047.6864 0.3779376 1045.411 0.37795275 1043.0385 L 0.37795275 728.68585 C 0.37795484 723.74524 4.3712096 719.7401 9.297138 719.7401 Z"/>
            <g id="g4233" transform="matrix(0.07348588 0 0 0.07370838 -248.0173 933.60065)"/>
            <g id="g4211" transform="matrix(0.07348588 0 0 0.07370838 -248.01726 933.60065)"/>
            <g id="g4227" transform="matrix(0.07348588 0 0 0.07370838 -248.0173 933.60065)"/>
            <path id="path4884-1" fill="#ff0000" stroke="none" d="M 58.629673 814.07623 L 86.87338 785.7397 L 58.629673 757.40326 L 30.385965 785.7397 Z"/>
            <path id="path4884-1-4" fill="#ff0000" stroke="none" d="M 58.629677 1014.3212 L 86.87338 985.9846 L 58.629677 957.6481 L 30.385965 985.9846 Z"/>
            <path id="path4884-1-4-1" fill="#ff0000" stroke="none" d="M 58.629677 947.5729 L 86.87338 919.2364 L 58.629677 890.8997 L 30.385965 919.2364 Z"/>
            <path id="path4884-1-7" fill="#ff0000" stroke="none" d="M 58.629673 880.82446 L 86.87338 852.48804 L 58.629673 824.1515 L 30.385965 852.48804 Z"/>
            <path id="path4884-1-40" fill="#ff0000" stroke="none" d="M 175.37032 814.07623 L 203.61404 785.7397 L 175.37032 757.40314 L 147.12662 785.7397 Z"/>
            <path id="path4884-1-4-9" fill="#ff0000" stroke="none" d="M 175.37032 1014.3212 L 203.61404 985.9846 L 175.37032 957.6481 L 147.12662 985.9846 Z"/>
            <path id="path4884-1-4-1-4" fill="#ff0000" stroke="none" d="M 175.37032 947.5728 L 203.61404 919.2364 L 175.37032 890.8997 L 147.12662 919.2364 Z"/>
            <path id="path4884-1-7-8" fill="#ff0000" stroke="none" d="M 175.37032 880.82446 L 203.61404 852.488 L 175.37032 824.1515 L 147.12662 852.488 Z"/>
            <path id="path4884-1-40-8-2" fill="#ff0000" stroke="none" d="M 117 914.19867 L 145.24371 885.8622 L 117 857.52563 L 88.756294 885.8622 Z"/>
            <path id="path4884-1-4-5-3" fill="#ff0000" stroke="none" d="M 17.205568 780.7021 L 26.620136 771.2566 L 17.205568 761.8111 L 7.7910004 771.2566 Z"/>
            <path id="path4884-1-4-5-3-5" fill="#ff0000" stroke="none" d="M 216.79443 991.0222 L 226.209 1000.4677 L 216.79443 1009.9134 L 207.37987 1000.4677 Z"/>
            <g id="text3755" transform="matrix(0.9907914 0 0 1.0092942 0 0)">
                <path id="path897" fill="#ff0000" stroke="none" d="M 26.86755 734.10754 Q 26.86755 740.0978 24.743221 743.8488 Q 22.083023 748.5569 16.55211 748.5569 Q 13.317772 748.5569 11.212579 747.2746 Q 8.667211 745.7052 8.667211 742.64325 Q 8.667211 741.9734 9.604979 741.9734 L 12.437418 741.9734 Q 12.992424 741.9734 13.375185 742.60486 Q 13.949328 743.5427 14.255538 743.8106 Q 15.040201 744.4421 16.55211 744.4421 Q 19.097479 744.4421 20.513699 742.06903 Q 21.623709 740.1552 21.757675 737.361 Q 19.518518 739.14087 16.399006 739.14087 Q 12.437418 739.14087 10.083431 736.34674 Q 7.8634105 733.72473 7.8634105 729.68665 Q 7.8634105 725.438 10.29395 722.9692 Q 12.72449 720.48126 16.954012 720.48126 Q 26.86755 720.48126 26.86755 734.10754 Z M 21.642847 729.8015 Q 21.642847 727.71545 20.513699 726.2609 Q 19.269722 724.6533 17.260221 724.6533 Q 15.193306 724.6533 13.968467 726.22266 Q 12.858455 727.658 12.858455 729.8015 Q 12.858455 731.9832 13.949328 733.3995 Q 15.135891 734.94965 17.260221 734.94965 Q 19.365414 734.94965 20.551975 733.3803 Q 21.642847 731.9641 21.642847 729.8015 Z"/>
            </g>
            <g id="text3755-2" transform="matrix(-0.9907914 0 0 -1.0092942 0 0)">
                <path id="path900" fill="#ff0000" stroke="none" d="M -209.3073 -1021.3016 Q -209.3073 -1015.3114 -211.43163 -1011.5603 Q -214.09184 -1006.85223 -219.62274 -1006.85223 Q -222.85709 -1006.85223 -224.96228 -1008.1346 Q -227.50764 -1009.7039 -227.50764 -1012.766 Q -227.50764 -1013.4359 -226.56987 -1013.4359 L -223.73743 -1013.4359 Q -223.18243 -1013.4359 -222.79967 -1012.8043 Q -222.22552 -1011.8665 -221.91931 -1011.5985 Q -221.13464 -1010.96704 -219.62274 -1010.96704 Q -217.07738 -1010.96704 -215.66113 -1013.3403 Q -214.55115 -1015.254 -214.41718 -1018.0481 Q -216.65633 -1016.2683 -219.77583 -1016.2683 Q -223.73743 -1016.2683 -226.09142 -1019.0625 Q -228.31145 -1021.6844 -228.31145 -1025.7225 Q -228.31145 -1029.9712 -225.8809 -1032.44 Q -223.45036 -1034.9279 -219.22086 -1034.9279 Q -209.3073 -1034.9279 -209.3073 -1021.3016 Z M -214.532 -1025.6077 Q -214.532 -1027.6937 -215.66113 -1029.1482 Q -216.90514 -1030.7559 -218.91463 -1030.7559 Q -220.98154 -1030.7559 -222.20638 -1029.1865 Q -223.31639 -1027.7512 -223.31639 -1025.6077 Q -223.31639 -1023.4259 -222.22552 -1022.00964 Q -221.03896 -1020.4595 -218.91463 -1020.4595 Q -216.80943 -1020.4595 -215.62286 -1022.0289 Q -214.532 -1023.4451 -214.532 -1025.6077 Z"/>
            </g>
        </g>
    </g>
</svg>
